viewer/images/icons-new/ic_settings.svg

<?xml version="1.0" encoding="UTF-8" standalone="no"?>
<svg
   xmlns:dc="http://purl.org/dc/elements/1.1/"
   xmlns:cc="http://creativecommons.org/ns#"
   xmlns:rdf="http://www.w3.org/1999/02/22-rdf-syntax-ns#"
   xmlns:svg="http://www.w3.org/2000/svg"
   xmlns="http://www.w3.org/2000/svg"
   xmlns:sodipodi="http://sodipodi.sourceforge.net/DTD/sodipodi-0.dtd"
   xmlns:inkscape="http://www.inkscape.org/namespaces/inkscape"
   fill="#000000"
   height="48"
   viewBox="0 0 24 24"
   width="48"
   id="svg56178"
   version="1.1"
   inkscape:version="0.91 r"
   sodipodi:docname="ic_settings.svg">
  <metadata
     id="metadata56188">
    <rdf:RDF>
      <cc:Work
         rdf:about="">
        <dc:format>image/svg+xml</dc:format>
        <dc:type
           rdf:resource="http://purl.org/dc/dcmitype/StillImage" />
      </cc:Work>
    </rdf:RDF>
  </metadata>
  <defs
     id="defs56186" />
  <sodipodi:namedview
     pagecolor="#ffffff"
     bordercolor="#666666"
     borderopacity="1"
     objecttolerance="10"
     gridtolerance="10"
     guidetolerance="10"
     inkscape:pageopacity="0"
     inkscape:pageshadow="2"
     inkscape:window-width="1920"
     inkscape:window-height="1006"
     id="namedview56184"
     showgrid="false"
     inkscape:zoom="4.9166667"
     inkscape:cx="23.59322"
     inkscape:cy="7.7288136"
     inkscape:window-x="0"
     inkscape:window-y="24"
     inkscape:window-maximized="1"
     inkscape:current-layer="svg56178" />
  <path
     d="M0 0h24v24H0z"
     fill="none"
     id="path56180" />
  <path
     d="m 19.43,12.98 c 0.04,-0.32 0.07,-0.64 0.07,-0.98 0,-0.34 -0.03,-0.66 -0.07,-0.98 l 2.11,-1.65 c 0.19,-0.15 0.24,-0.42 0.12,-0.64 l -2,-3.46 C 19.54,5.05 19.27,4.97 19.05,5.05 l -2.49,1 C 16.04,5.65 15.48,5.32 14.87,5.07 L 14.49,2.42 C 14.46,2.18 14.25,2 14,2 L 10,2 C 9.75,2 9.54,2.18 9.51,2.42 L 9.13,5.07 C 8.52,5.32 7.96,5.66 7.44,6.05 l -2.49,-1 C 4.72,4.96 4.46,5.05 4.34,5.27 l -2,3.46 C 2.21,8.95 2.27,9.22 2.46,9.37 l 2.11,1.65 C 4.53,11.34 4.5,11.67 4.5,12 c 0,0.33 0.03,0.66 0.07,0.98 l -2.11,1.65 c -0.19,0.15 -0.24,0.42 -0.12,0.64 l 2,3.46 c 0.12,0.22 0.39,0.3 0.61,0.22 l 2.49,-1 c 0.52,0.4 1.08,0.73 1.69,0.98 l 0.38,2.65 C 9.54,21.82 9.75,22 10,22 l 4,0 c 0.25,0 0.46,-0.18 0.49,-0.42 l 0.38,-2.65 c 0.61,-0.25 1.17,-0.59 1.69,-0.98 l 2.49,1 c 0.23,0.09 0.49,0 0.61,-0.22 l 2,-3.46 c 0.12,-0.22 0.07,-0.49 -0.12,-0.64 z m -7.463899,3.858983 c -2.6870456,0 -4.8728806,-2.185836 -4.8728806,-4.872882 0,-2.6870456 2.185835,-4.8728806 4.8728806,-4.8728806 2.687046,0 4.872882,2.185835 4.872882,4.8728806 0,2.687046 -2.185836,4.872882 -4.872882,4.872882 z"
     id="path56182"
     inkscape:connector-curvature="0"
     sodipodi:nodetypes="csccccccccssccccccccsccccccccsscccccccczzzzz" />
</svg>

<svg fill="#000000" height="48" viewBox="0 0 24 24" width="48" xmlns="http://www.w3.org/2000/svg">
    <path d="M0 0h24v24H0z" fill="none"/>
    <path d="M19.43 12.98c.04-.32.07-.64.07-.98s-.03-.66-.07-.98l2.11-1.65c.19-.15.24-.42.12-.64l-2-3.46c-.12-.22-.39-.3-.61-.22l-2.49 1c-.52-.4-1.08-.73-1.69-.98l-.38-2.65C14.46 2.18 14.25 2 14 2h-4c-.25 0-.46.18-.49.42l-.38 2.65c-.61.25-1.17.59-1.69.98l-2.49-1c-.23-.09-.49 0-.61.22l-2 3.46c-.13.22-.07.49.12.64l2.11 1.65c-.04.32-.07.65-.07.98s.03.66.07.98l-2.11 1.65c-.19.15-.24.42-.12.64l2 3.46c.12.22.39.3.61.22l2.49-1c.52.4 1.08.73 1.69.98l.38 2.65c.03.24.24.42.49.42h4c.25 0 .46-.18.49-.42l.38-2.65c.61-.25 1.17-.59 1.69-.98l2.49 1c.23.09.49 0 .61-.22l2-3.46c.12-.22.07-.49-.12-.64l-2.11-1.65zM12 15.5c-1.93 0-3.5-1.57-3.5-3.5s1.57-3.5 3.5-3.5 3.5 1.57 3.5 3.5-1.57 3.5-3.5 3.5z"/>
</svg>
